X:1
T:Booth Shot Lincoln - A (or G)
L:1/8
M:4/4
R:Reel
K:A
|AF|:E2C4E2|FA2F A2 EF|A2c2B2A2|F4F2AF|
|| ce2ce4| fa2fa2af| e2c2BcBA| F4A2B2|

